X:1
T:Earl Crawford
M:3/4
L:1/8
K:G
 B| A3/2 F/2 G2A-B| AF E2 D z/2 E/2| Dd/2-B/2 A2B-d| ef/2-e/2 d3 B|\
 A3/2 F/2 G2B-d| AF E2- D z/2 D/2| FA B2 A3/2- F/2| E3/2 D/2 D2 d3/2- B/2|\
 AFG-A Bd/2-B/2| AF E2 D z/2 D/2| FA B2 A3/2 F/2| E3/2 D/2 D3||
